!!!OTL: Jiaosheng laoban ni xi ting
!!!ARE: Asia, China,ÿYunnan, Gejiu
!! II, 51
!!!SCT: C1484
!!!YEM: Copyright 1995, estate of Helmut Schaffrath.
**kern
*ICvox
*Ivox
*M2/4
*k[b-e-]
*B-:
{8ccc
8ccc
8fff
16ddd
16ccc
=1
[2ccc
=2
4.ccc]
8ddd
=3
8bb-
8ddd
8ccc
8r}
=4
{8bb-
8ccc
8ccc
16aa
16gg
=5
4.ff
8dd
=6
4gg
8ff
8gg
=7
2cc}
=8
{16ff
16dd
16cc
16dd
16ff
16dd
16ff
16gg
=9
8ccc
16gg
16ccc
8.aa
16gg
=10
4.ff
8dd
=11
4gg
8ff
8gg
=12
2cc}
==
!!!AGN: Shange
!!!AMT: simple duple
!!!AIN: vox
!!!EED: Helmut Schaffrath
!!!EEV: 1.0
*-
!!!ONB: Tied note syntax fixed by Craig Sapp, 2004/05/03/
